X: 1
T:Hectorina, show's yer bits!
M:3/4
L:1/8
Q:200
C:Stephen P. McNally
N:Written for Fiona Blakey (don't ask!!!
H:Written early in 199
K:A
cB|A2 e^d ef|e4 ed|B^A Bc dB|c=c ^cd ec|A2 e^d ef|e4 ed|B^A Bc dB|A4 cB|
A2 e^d ef|e4 ed|~B3 c dB|c=c ^cd ec|A2 e^d ef|e4 ed|~B3 c dB|A4 A=F|!
E3 =F AB|=c4 BA|e3 ^d e=f|e6|B3 =c dB|e3d =cB|AG AB =cA|e6|!
E3 =F AB|=c4 BA|e3 ^d e=f|e6|a3 =g ed|=c3 B AB|ed =cB AG|A6||
